packages/core/src/svgs/alice.svg

<svg width="24" height="24" viewBox="0 0 24 24" fill="none" xmlns="http://www.w3.org/2000/svg">
<g clip-path="url(#clip0_31_5887)">
<path d="M0 0H24V24H0V0Z" fill="#F0F3FA"/>
<path d="M10.8642 4.28564C8.24991 4.28564 8.42134 7.43993 8.83706 9.02136C5.7942 7.22993 4.2042 8.27136 4.28991 11.1556C4.35848 13.4656 6.40277 14.2542 7.41848 14.3614C6.6042 14.7042 6.43277 18.9814 9.2142 19.2685C11.4385 19.4999 12.7671 17.3999 13.1571 16.3242C14.4771 17.4128 17.4428 19.0842 18.7456 17.0742C20.0399 15.0642 18.7028 12.8485 17.8756 11.9914C18.6299 11.6871 19.8556 10.4699 18.7456 8.06564C17.6313 5.66564 14.9399 6.85279 13.7313 7.7485C13.8685 6.59136 13.4828 4.28564 10.8642 4.28564Z" fill="#EA8397"/>
<path d="M11.2844 10.2002C11.4215 8.8631 10.9115 6.57881 10.6415 5.60596C11.3701 6.47167 11.6187 8.91453 11.653 10.0288C11.473 10.646 11.143 11.5417 11.2844 10.2002ZM17.3272 8.55881C15.433 8.3531 13.8772 9.86596 13.3372 10.646L13.4358 10.8774C14.4063 9.65527 15.7905 8.83055 17.3272 8.55881ZM7.28581 10.646C6.94648 10.5731 6.59378 10.5932 6.26492 10.7041C5.93605 10.815 5.64319 11.0125 5.41724 11.276C6.17581 11.0445 6.04295 11.096 6.90438 10.9974C7.59009 10.916 9.04724 11.5631 9.63866 11.8717L9.78866 11.6745C9.01318 11.2001 8.16676 10.8529 7.28152 10.646H7.28581ZM8.48581 17.006C9.45438 16.6245 10.5344 14.6831 10.9501 13.7617L11.1987 13.8902C9.90438 16.4917 8.85438 17.0531 8.49009 17.006H8.48581ZM13.4358 13.1874V12.806C14.9501 13.4607 16.3482 14.3566 17.5758 15.4588V15.7074C16.2815 14.5202 14.2758 13.5302 13.4358 13.1874Z" fill="#D26B7F"/>
<path d="M11.7856 14.5712C13.0874 14.5712 14.1428 13.5159 14.1428 12.2141C14.1428 10.9123 13.0874 9.85693 11.7856 9.85693C10.4838 9.85693 9.42847 10.9123 9.42847 12.2141C9.42847 13.5159 10.4838 14.5712 11.7856 14.5712Z" fill="#977849"/>
<path d="M11.7856 14.143C13.0874 14.143 14.1428 13.0877 14.1428 11.7859C14.1428 10.484 13.0874 9.42871 11.7856 9.42871C10.4838 9.42871 9.42847 10.484 9.42847 11.7859C9.42847 13.0877 10.4838 14.143 11.7856 14.143Z" fill="#FEECAC"/>
</g>
<defs>
<clipPath id="clip0_31_5887">
<rect width="24" height="24" fill="white"/>
</clipPath>
</defs>
</svg>

<svg xmlns="http://www.w3.org/2000/svg" width="24" height="24" fill="none" viewBox="0 0 24 24"><g clip-path="url(#a)"><path fill="#F0F3FA" d="M0 0h24v24H0z"/><path fill="#EA8397" d="M10.864 4.286c-2.614 0-2.443 3.154-2.027 4.735-3.043-1.791-4.633-.75-4.547 2.135.068 2.31 2.113 3.098 3.128 3.205-.814.343-.985 4.62 1.796 4.907 2.224.232 3.553-1.868 3.943-2.944 1.32 1.089 4.286 2.76 5.589.75 1.294-2.01-.043-4.226-.87-5.083.754-.304 1.98-1.521.87-3.925-1.115-2.4-3.806-1.213-5.015-.318.137-1.157-.248-3.462-2.867-3.462"/><path fill="#D26B7F" d="M11.284 10.2c.137-1.337-.373-3.621-.643-4.594.73.866.978 3.309 1.012 4.423-.18.617-.51 1.513-.369.171m6.043-1.641c-1.894-.206-3.45 1.307-3.99 2.087l.099.231a6.4 6.4 0 0 1 3.891-2.318M7.286 10.646a1.93 1.93 0 0 0-1.869.63c.759-.232.626-.18 1.487-.279.686-.081 2.143.566 2.735.875l.15-.197a8.5 8.5 0 0 0-2.507-1.029zm1.2 6.36c.968-.381 2.048-2.323 2.464-3.244l.249.128c-1.295 2.602-2.345 3.163-2.709 3.116zm4.95-3.819v-.381a15.3 15.3 0 0 1 4.14 2.653v.248c-1.294-1.187-3.3-2.177-4.14-2.52"/><path fill="#977849" d="M11.786 14.571a2.357 2.357 0 1 0 0-4.714 2.357 2.357 0 0 0 0 4.714"/><path fill="#FEECAC" d="M11.786 14.143a2.357 2.357 0 1 0 0-4.714 2.357 2.357 0 0 0 0 4.714"/></g><defs><clipPath id="a"><path fill="#fff" d="M0 0h24v24H0z"/></clipPath></defs></svg>
